Adwaita++-Light/panel/16/pcloud-pause.svg

<svg height="16" width="16" xmlns="http://www.w3.org/2000/svg">
  <g fill="#444">
    <path d="m8 2a5 5 0 0 0 -4.6035156 3.0488281 4 4 0 0 0 -3.3964844 3.9511719 4 4 0 0 0 3.8085938 3.990234v.009766h.1914062 4.0332031a4.5 4.5 0 0 1 -.0332031-.5 4.5 4.5 0 0 1 4.5-4.5 4.5 4.5 0 0 1 3.193359 1.3320312 2.4761905 2.4761905 0 0 0 -.871093-.9140624 2.5 2.5 0 0 0 .177734-.9179688 2.5 2.5 0 0 0 -2.421875-2.4960938 5 5 0 0 0 -4.578125-3.0039062zm-2 3h1 2 1v1 1 1h-1-2v3h-1v-3-1-1zm1 1v1h2v-1z" opacity=".3"/>
    <path d="m12.5 9a3.5 3.5 0 0 0 -3.5 3.5 3.5 3.5 0 0 0 3.5 3.5 3.5 3.5 0 0 0 3.5-3.5 3.5 3.5 0 0 0 -3.5-3.5zm-1.5 2h1v3h-1zm2 0h1v3h-1z"/>
  </g>
</svg>

<svg xmlns="http://www.w3.org/2000/svg" width="16" height="16" version="1.1">
 <defs>
  <style id="current-color-scheme" type="text/css">
   .ColorScheme-Text { color:#444444; } .ColorScheme-Highlight { color:#4285f4; }
  </style>
 </defs>
 <path style="fill:currentColor;opacity:0.3" class="ColorScheme-Text" d="M 8 2 A 5 5 0 0 0 3.3964844 5.0488281 A 4 4 0 0 0 0 9 A 4 4 0 0 0 3.8085938 12.990234 L 3.8085938 13 L 4 13 L 8.0332031 13 A 4.5 4.5 0 0 1 8 12.5 A 4.5 4.5 0 0 1 12.5 8 A 4.5 4.5 0 0 1 15.693359 9.3320312 A 2.4761905 2.4761905 0 0 0 14.822266 8.4179688 A 2.5 2.5 0 0 0 15 7.5 A 2.5 2.5 0 0 0 12.578125 5.0039062 A 5 5 0 0 0 8 2 z M 6 5 L 7 5 L 9 5 L 10 5 L 10 6 L 10 7 L 10 8 L 9 8 L 7 8 L 7 11 L 6 11 L 6 8 L 6 7 L 6 6 L 6 5 z M 7 6 L 7 7 L 9 7 L 9 6 L 7 6 z"/>
 <path style="fill:currentColor" class="ColorScheme-Text" d="M 12.5 9 A 3.5 3.5 0 0 0 9 12.5 A 3.5 3.5 0 0 0 12.5 16 A 3.5 3.5 0 0 0 16 12.5 A 3.5 3.5 0 0 0 12.5 9 z M 11 11 L 12 11 L 12 14 L 11 14 L 11 11 z M 13 11 L 14 11 L 14 14 L 13 14 L 13 11 z"/>
</svg>
